svg/white/cmm.svg

<svg width="32" height="32" viewBox="0 0 32 32" version="1.1" xmlns="http://www.w3.org/2000/svg" xmlns:xlink="http://www.w3.org/1999/xlink"><title>svg/white/cmm</title><desc>Created with Sketch.</desc><g id="white/cmm" stroke="none" stroke-width="1" fill="none" fill-rule="evenodd"><path d="M16,32 C7.163444,32 0,24.836556 0,16 C0,7.163444 7.163444,0 16,0 C24.836556,0 32,7.163444 32,16 C32,24.836556 24.836556,32 16,32 Z M16.5694118,4.00705882 C13.8680025,3.91317691 11.2163876,4.750529 9.05882353,6.37882353 C8.63523628,6.69727579 8.37718583,7.18922983 8.35597779,7.71874679 C8.33476974,8.24826376 8.55264957,8.75927961 8.94941176,9.11058824 C9.57099558,9.69901934 10.5290816,9.74549926 11.2047059,9.22 C14.6361681,6.54962622 19.5395017,6.9449575 22.4988235,10.1305882 C23.0883567,10.7399849 23.1068441,11.7013292 22.5411765,12.3329412 C21.94275,12.9742199 20.9377789,13.0089831 20.2964706,12.4105882 L20.2188235,12.3329412 C18.2708568,10.1977322 14.9614765,10.0440303 12.8239857,11.989493 C10.6864949,13.9349556 10.5289141,17.2441535 12.47187,19.3839231 C14.4148259,21.5236928 17.7238368,21.6851523 19.8658824,19.7447059 C19.9835294,19.6364706 20.1011765,19.5188235 20.2188235,19.3917647 C20.6877835,18.8672348 21.4503167,18.7225416 22.0788235,19.0388235 C22.5200519,19.2597196 22.8325162,19.6743318 22.9232831,20.1593461 C23.0140501,20.6443604 22.8726642,21.1439074 22.5411765,21.5094118 C19.5932907,24.7358787 14.666027,25.1683369 11.2011765,22.5047059 C10.5187098,21.9845871 9.56103107,22.0307582 8.93176471,22.6141176 C8.5374421,22.9750345 8.32552768,23.493611 8.35423319,24.0273968 C8.3829387,24.5611826 8.64924531,25.0540417 9.08,25.3705882 C13.1732147,28.406213 18.7487178,28.4854341 22.9265277,25.5673304 C27.1043376,22.6492268 28.949065,17.3871463 27.5078306,12.4991745 C26.0665963,7.6112027 21.662085,4.19173048 16.5694118,4.00705882 Z M16.3505882,18.7952941 C14.7326203,18.7894519 13.425001,17.4744698 13.4282433,15.8564946 C13.4314857,14.2385194 14.7443647,12.9287887 16.3623431,12.9294311 C17.9803214,12.9300735 19.2921601,14.2408463 19.2941176,15.8588235 C19.2950617,16.6391373 18.9850176,17.38766 18.43259,17.9387628 C17.8801625,18.4898657 17.1308975,18.7981117 16.3505882,18.7952941 Z" id="Combined-Shape" fill="#FFF" fill-rule="nonzero"/></g></svg>

<svg width="32" height="32" viewBox="0 0 32 32" xmlns="http://www.w3.org/2000/svg"><path d="M16 32C7.163 32 0 24.837 0 16S7.163 0 16 0s16 7.163 16 16-7.163 16-16 16zm.57-27.993A11.788 11.788 0 0 0 9.058 6.38a1.765 1.765 0 0 0-.11 2.732c.622.588 1.58.634 2.256.109a8.386 8.386 0 0 1 11.294.91c.59.61.608 1.571.042 2.203a1.588 1.588 0 0 1-2.245.078l-.077-.078a5.238 5.238 0 1 0 0 7.059 1.556 1.556 0 0 1 1.86-.353 1.578 1.578 0 0 1 .462 2.47 8.414 8.414 0 0 1-11.34.996 1.765 1.765 0 0 0-2.27.11 1.786 1.786 0 0 0 .149 2.756 11.852 11.852 0 1 0 7.49-21.364zm-.22 14.788a2.933 2.933 0 1 1 .022-5.866 2.933 2.933 0 0 1-.021 5.866z" fill="#FFF"/></svg>
